X:1
T:L'allée d'émeraude et d'or
T:L'allée d'émeraude et d'or
T:Cécile Chaminade
T:L'allée d'émeraude et d'or
T:Robert Myriel
T:OpenScore (CC0)
T:OpenScore (CC0)
T:OpenScore (CC0)
T:OpenScore (CC0)
C:Cécile Chaminade
Z:Robert Myriel
Z:OpenScore (CC0)
%%score 1 { ( 2 4 ) | ( 3 5 ) }
L:1/8
Q:1/4=92
M:2/2
K:G
V:1 treble nm="Voice"
V:2 treble nm="Piano"
V:4 treble 
V:3 bass 
V:5 bass 
V:1
"^À mademoiselle JANE BATHORI""^Moderato""_Moderato" z8 | z8 |!p! D2 D D D D D D | %3
w: ||Seul, je m'a- van- ce dans l'al-|
 (E2 D2) z2!<(! B, C | D2!<)! D2 G2 F E | !>!D4- D z"^con melanconia" !fermata!z D | %6
w: \- lé- e D'é- me-|raude et d'or à la|fois.  _ Oc-|
 D2- D A A2 A G | B4- B2 z D | D A A3- A A G | B2- B2 z2!mf! B2 | !>!d2 A A A2 A G | %11
w: \- to- bre dé- pouil- le le|bois,  _ Les|feuil- les pren- nent leur vo-|lé- e Et|cou- vrent les bancs ver- mou-|
!>(! c4-!>)! c z!p! F G | (B2 A) A A2 E2 | F4- F z z2 |!p! B,2 B, B, B, B, B, B, | %15
w: \- lus  _ Où per-|son- ne ne m'at- tend|plus.  _|Seul, je m'a- van- ce dans l'al-|
 (^C2 B,) z z2 B, =C | D2 D2 G2 F E |!>(! D4!>)! !fermata!z F G A | B3"^cresc." ^c B3 F | %19
w: lé- e D'é- me-|raude et d'or à la|fois. L'é- té pas-|sé com- bien de|
"^Animando" B4- B z F F |"^cresc." B2 B B B3"^Animando" d | (^c2 B2) z2!f! B B | e2 d2 ^c2 d d | %23
w: fois  _ L'a- vons-|nous len- te- ment fou-|lé- e, Fris- son-|nant du même em- bar-|
 A4- A z!p! A2 | A2 G2 F2 G2 |!pp! B,2 F2!>(! (E4 | D)!>)! z z2 z4 | z8 |!pp! D2 D D D D D D | %29
w: \- ras  _ Que|nos pu- deurs ne|di- saient pas. |_||Seul, je m'a- van- ce dans l'al-|
 (!>!E2 D2) z2 B, C | D2 D2"^Poco rit."[Q:1/2=40] G2 F E | D4- D2 z2 | %32
w: \- lé- e D'é- me-|raude et d'or à la|fois.  _|
!p!"^A tempo I"[Q:1/2=46] D A A2- A A A G |!<(! B4-!<)! B2 z"^cresc." D | D A A3 A A G | %35
w: Que n'est- el- le comme au- tre-|fois  _ In-|dif- fé- rente ou bien trou-|
!>(! B2- B2-!>)! B z!f! B B | (!>!d3 A) A2 A G |!>(! c4-!>)! c z!p! F G | B2 A D!pp! ((B A2) D) | %39
w: \- blé- e,  _ L'ombre *|chè- re, sur mon che-|min,  _ Pour m'of-|\- frir sim- ple- ment  _ la|
 G4- G2 z2 |!p! G2 G G G G G G | (A2 G2) z2 E =F | G2 G2!pp!"^Poco rit.\n"[Q:1/2=40] _B2 A G | %43
w: main  _|Seul, je m'a- van- ce dans l'al-|\- lé- e D'é- me-|raude et d'or à la|
 =B8- | B8 |] %45
w: fois. |_|
V:2
!p! ([G,B,D]2 [B,DG]2 [DGB]2 [GBd]2 | [GBe]2 [Beg]2 [egb]2 [egc']2) |!p! [dfad']4 [Bde]4 | %3
!<(! [Bd^e]4 [cf-]2 [_ef]2!<)! | [dg]4 !arpeggio![eg^c']4 | %5
 !arpeggio![dfd']4- [dfd'] z !fermata!z z |[I:staff +1] [D,A,CD]2 [D,A,CD]4 [D,A,CD]2 | %7
"^marcato"!<(![I:staff -1] (!^!D2 !^!E2!<)! !^!F2 (3!^!E!^!F!^!E) | %8
[I:staff +1] [F,CD]2 [F,CD]4 [F,CD]2 | %9
"^marcato"!<(![I:staff -1] (!^!D!^!E!^!D!^!E!<)! !^!F2({EF)} !^!E!^!D) | %10
!mf! !>![A,C=F]2 [A,CF]4 [G,B,F]2 |!>(! [G,CE]2 [G,CE]4!>)! [G,CE]2 |!p! [A,CE]2 [A,CE]4 [A,CE]2 | %13
[I:staff +1] ([^D,F,B,]2 [F,B,^D]2[I:staff -1] [B,^DF]2 [DFB]2) | [B^d]4 [Be]4 | ^e4 [B^df]4 | %16
 [=d=g]4 !arpeggio![eg^c']4 | !arpeggio![dfd']4- !fermata![dfd'] z z2 | %18
!<(! [^CGB]2 [CGB]4!<)! [^B,F!courtesy!=B]2 | %19
"^Animando""_cresc." [^CGB]2 [CGB]4 [^B,F!courtesy!=B]2 |"_cresc." [^CGB]2 [CGB]4 [CGB]2 | %21
"^Animando"!f!!<(! [D^G^c]2 [DGB]4!<)! [DGB]2 |!f! !^![EAe]2 !^!d2 !^!^c2 !^![DAd]2 | %23
!ff! [DGA]2 [^CGA]2 [^B,GA]2!>(! [CGA]2 | ([=CFA]2 [B,EG]2!>)! [^A,EF]2 [B,EG]2) | %25
!p! (B,2 D2)!>(! ^C4!>)! |!p![I:staff +1] ([F,A,D]2[I:staff -1] [A,DF]2 [DFA]2 [FAd]2 | %27
 [G=ce]2 [ceg]2 [egb]2 [egc']2) | [fad']4 [Bde]4 | [Bd^e]4!<(! [cf-]2!<)! [_ef]2 | %30
 [dg]4!p!"_Suivez" !arpeggio![eg^c']4 | [dfd']4- [dfd']2 z2 | %32
!p!"^A tempo I"[I:staff +1] [D,A,CD]2 [D,A,CD]4 [D,A,CD]2 | %33
!<(![I:staff -1] (D2 E2!<)! !>!F2 (3EFE) |"_cresc."[I:staff +1] [F,CD]2 [F,CD]4 [F,CD]2 | %35
!f!!<(![I:staff -1] (DEDE!<)! F2({EF)} ED) |!f! [A,C=F]2 [A,CF]4 [G,B,F]2 | %37
!>(! [G,CE]2 [G,CE]4!>)!!p! [G,C_E]2 |[I:staff +1] [F,CD]4!pp! [F,CD]4 | %39
!<(![I:staff -1] ([G,B,D]2 [B,DG]2 [DGB]2!<)! [GBd]2) | [Bdg]4 [cga]4 | !arpeggio![^cg^a]4 [dgb]4 | %42
 [cgc']4"^Poco rit." !arpeggio![cg_bc']4 | !arpeggio![dg=bd']8 | [gbd'g']8 |] %45
V:3
 !>!G,,4 !>!F,,4 | !>![E,,E,]4 !>![E,,,E,,]4 | !>![D,,,D,,]4[I:staff -1] [DG]4 | %3
 [D^G]4 ([DA]2 [Dc]2) | [DB]4 !arpeggio![D_B]4 | !arpeggio![DA]4- [DA][I:staff +1] z x x | %6
 [G,,,D,,G,,]2 [G,,,D,,G,,]4 [G,,,D,,G,,]2 | (!^!D,2 !^!E,2 !^!F,2 !^!E,2) | %8
 [G,,D,]2 [G,,D,]4 [G,,D,]2 | (!^!D,!^!E,!^!D,!^!E, !^!F,2 !^!E,!^!D,) | %10
 !>![G,,D,]2 [G,,D,]4 [G,,D,]2 | [C,,G,,C,]2 [C,,G,,C,]4 [C,,C,]2 | !>!^F,2 F,4 F,2 | %13
 [B,,,B,,]4- [B,,,B,,]4 |[I:staff -1] [B,F]4 [B,G]4 | [B,^G]4 [B,A]4 |[I:staff +1] z2 D,,2- D,,4 | %17
[I:staff -1] !arpeggio![DA]4- !fermata![DA][I:staff +1] z z2 | [A,,E,]2 [A,,E,]4 [A,,^D,]2 | %19
 [A,,E,]2 [A,,E,]4 [A,,^D,]2 | [A,,E,]2 [A,,E,]4 [A,,E,]2 | [A,,^E,]2 [A,,E,]4 [A,,E,]2 | %22
 !^![F,A,F]2 !^![F,A,F]4 !^![F,,A,,F,]2 | !^![E,,A,,E,]2 !^![E,,A,,E,]4 [E,,A,,E,]2 | %24
 [^D,,^D,]2 [E,,E,]4 [E,,E,]2 | [A,,,A,,]4 [A,,,A,,]4 | [D,,,D,,]8 | !>!D8 | %28
[I:staff -1] !^!d4 [DG]4 | [D^G]4 [D-A]2 [Dc]2 | [DB]4 !arpeggio![D_B]4 | %31
 [DA]4- [DA]2[I:staff +1] z2 | [G,,,D,,G,,]2 [G,,,D,,G,,]4 [G,,,D,,G,,]2 | %33
 (D,2 E,2 !>!F,2 (3E,F,E,) | [G,,D,]2 [G,,D,]4 [G,,D,]2 | (D,E,D,E, F,2({E,F,)} E,D,) | %36
 [G,,D,]2 [G,,D,]4 [G,,D,]2 | [C,,G,,C,]2 [C,,G,,C,]4 A,,2 | [D,,A,,]4 [D,,,D,,]4 | [G,,,G,,]8 | %40
[I:staff -1] [=FG]4 [EG]4 | !arpeggio!_E4 B4 | [=EG]4 !arpeggio![_EG_B]4 | %43
[I:staff +1] z2 [G,,D,]4 [G,,D,]2 |[I:staff -1] [Gd]8 |] %45
V:4
 x8 | x8 | x8 | x8 | x8 | x8 | x8 | !^![G,B,]4 !arpeggio!!^![G,B,]4 | x8 | !^![G,B,]2 !^![G,B,]6 | %10
 x8 | x8 | x8 | x8 | x8 | ^c2 B2- x4 | [=DB]4 !arpeggio![D_B]4 | x8 | x8 | x8 | x8 | x8 | %22
 x2 [DA]4 x2 | !^!D2 !^!^C2 !^!^B,2 !^!C2 | x8 |[I:staff +1] [D,G,]4 (A,2 G,2) | x8 | x8 | x8 | %29
 x8 | x8 | x8 | x8 |[I:staff -1] [G,B,]4 [G,B,]4 | x8 | [G,B,]2 [G,B,]6 | x8 | x8 | x8 | x8 | x8 | %41
 x8 | x8 | z2 [G,B,D]4 [G,B,D]2 | x8 |] %45
V:5
 x8 | x8 | x8 | x8 | x8 | x8 | x8 | !^!G,,4- !^!G,,4 | x8 | !^!G,,4- !^!G,,4 | x8 | x8 | x8 | x8 | %14
 x8 | x8 | x8 | x8 | x8 | x8 | x8 | x8 | x8 | x8 | x8 | x8 | x8 | x8 | x8 | x8 | x8 | x8 | x8 | %33
 G,,4- G,,4 | x8 | G,,4- G,,4 | x8 | x8 | x8 | x8 | x8 |[I:staff -1] (!arpeggio!=A2 G2) (D2 =F2) | %42
 x8 |[I:staff +1] !>![G,,,G,,]8- | [G,,,G,,]8 |] %45

